assets/Alien/Flat/alien_flat.svg

<svg width="32" height="32" viewBox="0 0 32 32" fill="none" xmlns="http://www.w3.org/2000/svg">
<path d="M29.84 15.92C29.84 23.61 18.92 30 15.92 30C12.92 30 2 23.61 2 15.92C2 8.23 8.23 2 15.92 2C23.61 2 29.84 8.23 29.84 15.92Z" fill="#86D72F"/>
<path d="M13.3684 24.2248C13.7965 23.8759 14.4264 23.9402 14.7753 24.3684C15.1509 24.8294 15.5995 25.0125 16 25.0125C16.4006 25.0125 16.8491 24.8294 17.2248 24.3684C17.5737 23.9402 18.2036 23.8759 18.6317 24.2248C19.0599 24.5737 19.1241 25.2036 18.7753 25.6317C18.0509 26.5206 17.0495 27.0125 16 27.0125C14.9506 27.0125 13.9491 26.5206 13.2248 25.6317C12.8759 25.2036 12.9402 24.5737 13.3684 24.2248Z" fill="#212121"/>
<path d="M6.47445 19.5267C8.72837 21.7796 11.0749 23.0757 13.3185 20.8332C15.5725 18.5906 15.5519 14.9284 13.3083 12.6858C11.0646 10.4432 7.41101 10.4329 5.16738 12.6858C2.92375 14.9387 4.22053 17.2738 6.47445 19.5267Z" fill="#533566"/>
<path d="M25.5247 19.5267C23.27 21.7796 20.9226 23.0757 18.6782 20.8332C16.4338 18.5906 16.4441 14.9284 18.6885 12.6858C20.9329 10.4432 24.5878 10.4329 26.8322 12.6858C29.0766 14.9387 27.7794 17.2738 25.5247 19.5267Z" fill="#533566"/>
<path d="M12.62 15.62C13.23 15.01 13.09 13.89 12.31 13.11C11.53 12.34 10.41 12.19 9.80002 12.8C9.19002 13.41 9.33002 14.53 10.11 15.31C10.89 16.09 12.01 16.23 12.62 15.62Z" fill="white"/>
<path d="M25.9 15.62C26.51 15.01 26.37 13.89 25.59 13.11C24.82 12.34 23.69 12.19 23.08 12.8C22.47 13.41 22.61 14.53 23.39 15.31C24.17 16.09 25.29 16.23 25.9 15.62Z" fill="white"/>
</svg>

<svg xmlns="http://www.w3.org/2000/svg" width="32" height="32" fill="none"><path fill="#86D72F" d="M29.84 15.92C29.84 23.61 18.92 30 15.92 30S2 23.61 2 15.92 8.23 2 15.92 2c7.69 0 13.92 6.23 13.92 13.92Z"/><path fill="#212121" d="M13.368 24.225a1 1 0 0 1 1.407.143c.376.461.825.645 1.225.645.4 0 .85-.184 1.225-.645a1 1 0 1 1 1.55 1.264c-.724.889-1.726 1.38-2.775 1.38-1.05 0-2.05-.491-2.775-1.38a1 1 0 0 1 .143-1.407Z"/><path fill="#533566" d="M6.474 19.527c2.254 2.253 4.6 3.549 6.845 1.306 2.253-2.242 2.233-5.905-.01-8.147-2.244-2.243-5.898-2.253-8.142 0-2.243 2.253-.946 4.588 1.307 6.84ZM25.525 19.527c-2.255 2.253-4.602 3.549-6.847 1.306-2.244-2.242-2.234-5.905.01-8.147 2.245-2.243 5.9-2.253 8.144 0 2.245 2.253.947 4.588-1.307 6.84Z"/><path fill="#fff" d="M12.62 15.62c.61-.61.47-1.73-.31-2.51-.78-.77-1.9-.92-2.51-.31-.61.61-.47 1.73.31 2.51.78.78 1.9.92 2.51.31ZM25.9 15.62c.61-.61.47-1.73-.31-2.51-.77-.77-1.9-.92-2.51-.31-.61.61-.47 1.73.31 2.51.78.78 1.9.92 2.51.31Z"/></svg>
